app/dist/common/images/pentair.svg

<svg height="18" width="18" xmlns="http://www.w3.org/2000/svg"><path d="m0 0h18v18h-18z" fill="#f0f3fa"/><path d="m6.668 5v3.5l1.665-1.75v3.5l1.667-1.75zm-1.668 5.25 1.668-1.75-1.668-1.75zm1.668 1.75 1.665-1.75-1.665-1.75z" fill="#64a70b"/><path d="m8 2v5.215l1.75-1.8v3.585l1.75-1.785v3.585l-1.75-1.8.044 3.59-1.794-1.79v5.2l7-6.993z" fill="#0c3471"/></svg>

<!-- by TradingView --><svg width="18" height="18" xmlns="http://www.w3.org/2000/svg"><path fill="#F0F3FA" d="M0 0h18v18H0z"/><path d="M6.668 5v3.5l1.665-1.75v3.5L10 8.5 6.668 5zM5 10.25L6.668 8.5 5 6.75v3.5zM6.668 12l1.665-1.75L6.668 8.5V12z" fill="#64A70B"/><path d="M8 2v5.215l1.75-1.8V9l1.75-1.785V10.8L9.75 9l.044 3.59L8 10.8V16l7-6.993L8 2z" fill="#0C3471"/></svg>
